img/hero/links/linked_in.svg

<svg width="18" height="18" viewBox="0 0 18 18" fill="none" xmlns="http://www.w3.org/2000/svg">
<path fill-rule="evenodd" clip-rule="evenodd" d="M2.33699 4.433C1.19299 4.433 0.273987 3.507 0.273987 2.368C0.273987 1.23 1.19399 0.305 2.33699 0.305C3.47699 0.305 4.40099 1.23 4.40099 2.368C4.40099 3.507 3.47599 4.433 2.33699 4.433ZM17.447 17.452H13.893V11.883C13.893 10.555 13.866 8.846 12.041 8.846C10.188 8.846 9.90499 10.291 9.90499 11.785V17.452H6.35099V6H9.76499V7.561H9.81099C10.288 6.661 11.448 5.711 13.181 5.711C16.782 5.711 17.448 8.081 17.448 11.166V17.452H17.447ZM0.554987 6V17.452H4.11899V6H0.554987Z" fill="white"/>
</svg>

<svg width="18" height="18" fill="none" xmlns="http://www.w3.org/2000/svg"><path fill-rule="evenodd" clip-rule="evenodd" d="M2.337 4.433A2.062 2.062 0 0 1 .274 2.368a2.064 2.064 0 1 1 2.063 2.065Zm15.11 13.019h-3.554v-5.569c0-1.328-.027-3.037-1.852-3.037-1.853 0-2.136 1.445-2.136 2.939v5.667H6.351V6h3.414v1.561h.046c.477-.9 1.637-1.85 3.37-1.85 3.601 0 4.267 2.37 4.267 5.455v6.286h-.001ZM.555 6v11.452h3.564V6H.555Z" fill="#fff"/></svg>
